picto/stairs-up-left.svg

<svg class="color-immutable" width="24" height="24" viewBox="0 0 24 24" fill="none" xmlns="http://www.w3.org/2000/svg"><g clip-path="url(#a)"><path d="M0 22.5v-21C0 .675.675 0 1.5 0h21c.825 0 1.5.675 1.5 1.5v21c0 .825-.675 1.5-1.5 1.5h-21C.675 24 0 23.325 0 22.5Z" fill="#2D327D"/><path d="M17.734 5.636a1.313 1.313 0 1 0 0-2.624 1.313 1.313 0 0 0 0 2.624ZM19.05 16.21V8.587l.825 1.088v2.7a.487.487 0 0 0 .976 0V9.289a.748.748 0 0 0-.153-.453l-1.578-2.08a1.499 1.499 0 0 0-2.695.907v5.275l-1.543 1.543a.749.749 0 0 0-.22.53v4.245a.694.694 0 0 0 1.388 0v-3.769l1.5-1.5v2.237c0 .144.042.286.12.407l2.381 3.685a.693.693 0 0 0 1.166-.753L19.05 16.21Z" fill="#fff"/><path d="M14.719 11.604c.059 0 .117-.01.172-.03l.896-.325v-1.077l-1.241.449a.506.506 0 0 0 .173.983ZM6.412 18.225h3.413v1.387h3.412V21h4.088v-.675h-3.413v-1.388H10.5V17.55H7.087v-1.388H3v.675h3.412v1.388Z" fill="#fff"/></g><defs><clipPath id="a"><path fill="#fff" d="M0 0h24v24H0z"/></clipPath></defs></svg>

<svg class="color-immutable" width="24" height="24" viewBox="0 0 24 24" fill="none" xmlns="http://www.w3.org/2000/svg"><path d="M0 22.5V1.5C0 0.675 0.675 0 1.5 0H22.5C23.325 0 24 0.675 24 1.5V22.5C24 23.325 23.325 24 22.5 24H1.5C0.675 24 0 23.325 0 22.5Z" fill="#2D327D"/><path d="M17.734 5.636C18.458 5.636 19.047 5.048 19.047 4.323C19.047 3.599 18.459 3.011 17.734 3.011C17.009 3.011 16.422 3.599 16.422 4.323C16.421 5.048 17.009 5.636 17.734 5.636Z" fill="white"/><path d="M19.05 16.21V8.587L19.875 9.675V12.375C19.875 12.644 20.093 12.862 20.363 12.862C20.632 12.862 20.851 12.644 20.851 12.375V9.289C20.851 9.125 20.797 8.966 20.698 8.836L19.12 6.756C18.837 6.382 18.394 6.163 17.925 6.163C17.097 6.163 16.425 6.835 16.425 7.663V12.938L14.882 14.481C14.741 14.622 14.662 14.812 14.662 15.011V19.256C14.662 19.639 14.973 19.95 15.356 19.95C15.739 19.95 16.05 19.639 16.05 19.256V15.487L17.55 13.987V16.224C17.55 16.368 17.592 16.51 17.67 16.631L20.051 20.316C20.179 20.514 20.398 20.633 20.634 20.633C21.017 20.633 21.328 20.322 21.328 19.939C21.328 19.805 21.29 19.675 21.217 19.563L19.05 16.21Z" fill="white"/><path d="M14.719 11.604C14.778 11.604 14.836 11.594 14.891 11.574L15.787 11.249V10.172L14.546 10.621C14.346 10.693 14.212 10.884 14.212 11.097C14.212 11.377 14.439 11.604 14.719 11.604Z" fill="white"/><path d="M6.412 18.225H9.825V19.612H13.237V21H17.325V20.325H13.912V18.937H10.5V17.55H7.087V16.162H3V16.837H6.412V18.225Z" fill="white"/></svg>
